X:3
T:Alter Masur
C:\"Osterreichische Tanzweise
Z:Bert Van Vreckem <http://flanders.blackmill.net/music/>
M:3/4
L:1/4
Q:1/4=108 
R:Masurkazeitmass
K:D
f/g/|aff|fee/f/|gee/b/|a2|f/g/|aff|fee/f/|gcc|d2:|
|:[K:G]D/E/|DBB|B>AA|Dcc|C>BB|DDD|c/d/ e/d/ c/B/|A/G/ F/G/ A/D/|[1B2:|[2G3||
|:gf>e|eFF|fe>d|dGG|ed^c|cBc|[1ced|cBB:|[2ceF|G2|]
